static/logos/typedream-glyph-color.svg

<svg width="50" height="31" viewBox="0 0 50 31" fill="none" xmlns="http://www.w3.org/2000/svg">
<g clip-path="url(#clip0_1_583)">
<path fill-rule="evenodd" clip-rule="evenodd" d="M50.0021 23.0437C50.0021 18.8018 46.5634 15.363 42.3214 15.363C38.0795 15.363 34.6406 18.8018 34.6406 23.0437C34.6406 27.2858 38.0795 30.7244 42.3214 30.7244C46.5634 30.7244 50.0021 27.2858 50.0021 23.0437Z" fill="#00C0FF"/>
<path fill-rule="evenodd" clip-rule="evenodd" d="M27.25 30.7301H42.3115V16.8087H27.25V30.7301Z" fill="#00C0FF"/>
<path fill-rule="evenodd" clip-rule="evenodd" d="M42.309 15.3685C42.309 6.88467 35.4315 0.00708008 26.9475 0.00708008C18.4636 0.00708008 11.5859 6.88467 11.5859 15.3685C11.5859 23.8525 18.4636 30.7301 26.9475 30.7301C35.4315 30.7301 42.309 23.8525 42.309 15.3685Z" fill="#8000FF"/>
<path fill-rule="evenodd" clip-rule="evenodd" d="M27.2247 30.693L14.0389 30.3439C13.6478 30.3749 13.2533 30.3907 12.856 30.3905C12.2098 30.3904 11.5564 30.3483 10.8986 30.2621C10.8985 30.2621 10.8984 30.2621 10.8984 30.2621H10.8977C10.8837 30.2603 10.8697 30.2584 10.8556 30.2566C2.66016 29.1598 9.03147 23.9289 10.1281 15.7335C11.2248 7.53808 9.32311 14.9946 13.5025 7.86011C16.0272 3.55029 19.3856 1.94951 19.4162 1.9623C25.188 4.37789 28.5434 10.819 27.6859 17.3609H27.6862C27.6862 17.3609 26.5033 26.156 26.3249 27.5437C26.2342 28.2496 26.4405 29.1465 26.5499 29.4558C26.9554 30.6023 27.2247 30.693 27.2247 30.693Z" fill="#6000C0"/>
<path fill-rule="evenodd" clip-rule="evenodd" d="M11.5289 30.7301C5.16591 30.7301 0.0078125 25.5719 0.0078125 19.2089C0.0078125 12.846 5.16591 7.68781 11.5289 7.68781C17.8809 7.68781 23.0323 12.8284 23.0499 19.1763H23.05V19.2089V21.4748C23.05 24.9714 24.481 28.3158 27.0104 30.7301H23.05H11.5616V30.73C11.5507 30.73 11.5398 30.7301 11.5289 30.7301Z" fill="#FF0060"/>
<path fill-rule="evenodd" clip-rule="evenodd" d="M11.5625 30.7301H23.0509V19.1763H11.5625V30.7301Z" fill="#FF0060"/>
</g>
<defs>
<clipPath id="clip0_1_583">
<rect width="50" height="30.7339" fill="white"/>
</clipPath>
</defs>
</svg>

<svg xmlns="http://www.w3.org/2000/svg" width="103.226" height="64" fill="none" viewBox="0 0 50 31"><g fill-rule="evenodd" clip-path="url(#a)" clip-rule="evenodd"><path fill="#00C0FF" d="M50.002 23.044a7.68 7.68 0 1 0-15.361 0 7.68 7.68 0 0 0 15.361 0Z"/><path fill="#00C0FF" d="M27.25 30.73h15.062V16.81H27.25V30.73Z"/><path fill="#8000FF" d="M42.309 15.368c0-8.483-6.877-15.36-15.361-15.36-8.484 0-15.362 6.877-15.362 15.36 0 8.484 6.878 15.362 15.362 15.362 8.483 0 15.361-6.878 15.361-15.362Z"/><path fill="#6000C0" d="m27.225 30.693-13.186-.35a14.873 14.873 0 0 1-3.14-.08h-.001l-.042-.006c-8.196-1.097-1.825-6.328-.728-14.524 1.097-8.195-.805-.738 3.374-7.873 2.525-4.31 5.884-5.91 5.914-5.898 5.772 2.416 9.127 8.857 8.27 15.399 0 0-1.183 8.795-1.361 10.183-.09.706.116 1.602.225 1.912.405 1.146.675 1.237.675 1.237Z"/><path fill="#FF0060" d="M11.529 30.73C5.166 30.73.008 25.572.008 19.21S5.166 7.688 11.528 7.688c6.353 0 11.504 5.14 11.522 11.488v2.299c0 3.496 1.431 6.84 3.96 9.255H11.53Z"/><path fill="#FF0060" d="M11.563 30.73H23.05V19.176H11.563V30.73Z"/></g><defs><clipPath id="a"><path fill="#fff" d="M0 0h50v30.734H0z"/></clipPath></defs></svg>
